X:399
T:Duncan Davidson
B:Kerr's Merry Melodies Bk1, p17
Z:Nigel Gatherer
M:4/4
L:1/8
K:D
F | D>FA>B A<FA<d | D>Fd>B A<FE>F  |\
    D>FA>B A<FA>g | f>de>f d<d  d :|
g | f>e (3def g>f>e>d |c<Ae>A c>de>g  |\
  1 f>e (3def g>f>e>d | c>de>g f<d d :|
  2 f<d g<e a<f b>g   | f>de>f d<d d |]
<end>
<start>
